X:6445
T:Tekili
O:england
C:Welch MS
N:From Sussex Arch Soc.  Other near identical vers from CSH and John Clare. JC has grace note F# on strong Es in bars 11,12.
N:This version in STB slightly different from that I got gorm the MS
M:6/8
L:1/8
K:D
|:A|d2d dcd|B2d A3|ABc def|
g2e c2A|d2d dcd|B2d A2A|ABc def|
gec d2:|
|:A|d2e f2f|fgf e2d|e2d e2d|
e2d e2f|d2e f2f|fgf e2d|e2d e2f|
d3d2:|


